X: 23160
T: Le Duleton
R: reel
M: 4/4
K: Dmajor
|:[M:4/4]d3c BABc|dBAG FDFD|[M:6/4] G3E FDEF D2Bc|
[M:4/4] d3c BABc|dBAG FDFD|[M:6/4] G3e fdec BAcA:|
|:[M:4/4]B3c B2AF|BABc B2AF|DEFG AdcA|[M:6/4] Bdag fddc dBcA|
[M:4/4]B3c B2AF|BABc B2AF|EDEF (3A,A,A, FA,|A,GA,F E2D2:|
|:D2DE EDFA|dBGB AFGB|[M:6/4] AFGF ED (3FFF EDGD|[M:4/4] E2ED CDE2|
D2DE EDFA|dBGB AFGB|[M:6/4] AFGF EDEF GABG|
[1[M:4/4] Acea f2ea|fecA dAFD:|2 [M:6/4] Acea f2ea fecA||

